icons/flame-24.svg

<svg xmlns="http://www.w3.org/2000/svg" width="24" height="24" viewBox="0 0 24 24"><path fill-rule="evenodd" d="M12.185 21.5c4.059 0 7.065-2.84 7.065-6.75 0-2.337-1.093-3.489-2.678-5.158l-.021-.023c-1.44-1.517-3.139-3.351-3.649-6.557a6.14 6.14 0 00-1.911 1.76c-.787 1.144-1.147 2.633-.216 4.495.603 1.205.777 2.74-.277 3.794-.657.657-1.762 1.1-2.956.586-.752-.324-1.353-.955-1.838-1.79-.567.706-.954 1.74-.954 2.893 0 3.847 3.288 6.75 7.435 6.75zm2.08-19.873c-.017-.345-.296-.625-.632-.543-2.337.575-6.605 4.042-4.2 8.854.474.946.392 1.675.004 2.062-.64.64-1.874.684-2.875-1.815-.131-.327-.498-.509-.803-.334-1.547.888-2.509 2.86-2.509 4.899 0 4.829 4.122 8.25 8.935 8.25 4.812 0 8.565-3.438 8.565-8.25 0-2.939-1.466-4.482-3.006-6.102-1.61-1.694-3.479-3.476-3.479-7.021z"/></svg>

<svg xmlns="http://www.w3.org/2000/svg" width="24" height="24" viewBox="0 0 24 24">
  <defs/>
  <path d="M14.265,1.627 C14.265,5.172 16.134,6.954 17.744,8.648 C19.284,10.268 20.75,11.811 20.75,14.75 C20.75,19.562 16.997,23 12.185,23 C7.372,23 3.25,19.579 3.25,14.75 C3.25,12.711 4.212,10.739 5.759,9.851 C6.064,9.676 6.431,9.858 6.562,10.185 C7.563,12.684 8.797,12.64 9.437,12 C9.825,11.613 9.907,10.884 9.433,9.938 C7.028,5.126 11.296,1.659 13.633,1.084 C13.969,1.002 14.248,1.282 14.265,1.627 Z M12.185,21.5 C16.244,21.5 19.25,18.66 19.25,14.75 C19.25,12.413 18.157,11.261 16.572,9.592 L16.551,9.569 C15.111,8.052 13.412,6.218 12.902,3.012 C12.147,3.456 11.495,4.056 10.991,4.772 C10.204,5.916 9.844,7.405 10.775,9.267 C11.378,10.472 11.552,12.007 10.498,13.061 C9.841,13.718 8.736,14.161 7.542,13.647 C6.79,13.323 6.189,12.692 5.704,11.857 C5.137,12.563 4.75,13.597 4.75,14.75 C4.75,18.597 8.038,21.5 12.185,21.5 Z"/>
</svg>
